X:1
T:Title
%%score { ( 1 4 ) | ( 2 3 ) }
L:1/8
M:3/4
K:Ab
V:1 treble nm="Grand Piano"
V:4 treble 
V:2 bass 
V:3 bass 
V:1
 z2 z2[Q:1/4=92] [CE]>[B,D] | [A,C]2 [CE]2 [DF]2 | [CA]4 [CA][CA] | [FA]2 [DF]2 [DA]2 | %4
 [CE]4 [Ec]2 | c2 B2 c2 | B2 A2 [Ec]2 | [EB]3 [Ec] [=DB]2 | E4 E2 | dB G2 F2 | [CF]2 [CE]2 [Ec]c | %11
 [A,FA]3 [A,FA] [A,DF]2 | [A,CA]4 [Ec]2 | .f2 z2 z2 | dc A2 F2 | E3 F E2 |[M:2/4] [CE]4 |] %17
V:2
 z2 z2 [A,,A,]2 | [A,,E,]2 [A,,A,]2 [A,,F,]2 | [A,,E,]4 [A,,A,]2 | [D,A,]2 [D,A,]2 [D,F,]2 | %4
 [A,,A,]4 [A,,A,]2 | [E,G,D]2 [E,G,D]2 [E,G,D]2 | [F,A,C]2 [F,A,C]2 [A,,A,]2 | %7
 [B,,G,]3 [B,,G,] [B,,A,]2 | [E,G,]4 [E,G,]2 | [E,G,E]2 [E,B,D]2 [E,G,D]2 | [A,,A,]2 [A,,A,]2 z E | %11
 D,3 D, D,2 | A,,4 A,2 | [E,B,]2 [E,E]2 [E,E]2 | [A,A]2[K:bass] z2 z2 | [G,B,D]3 [G,B,D] [E,G,D]2 | %16
[M:2/4] [A,,A,]4 |] %17
V:3
 x6 | x6 | x6 | x6 | x6 | x6 | x6 | x6 | x6 | x6 | z2 z2 [A,,A,]2 | x6 | x6 | x6 | %14
 FE[K:bass] [A,CE]2 [A,D]2 | x6 |[M:2/4] x4 |] %17
V:4
 x6 | x6 | x6 | x6 | x6 | x6 | x6 | x6 | x6 | x6 | x6 | x6 | x6 | G-[Ge] [GB]2 [Gd]2 | x6 | x6 | %16
[M:2/4] x4 |] %17

